packages/kaspersky-hexa-ui-icons/src/iconsSVGs/16x12/FlagWs.svg

<svg width="16" height="12" viewBox="0 0 16 12" fill="none" xmlns="http://www.w3.org/2000/svg">
<g clip-path="url(#clip0_41818_3996)">
<rect width="16" height="12" rx="2" fill="white"/>
<mask id="mask0_41818_3996" style="mask-type:luminance" maskUnits="userSpaceOnUse" x="0" y="0" width="16" height="12">
<rect width="16" height="12" rx="2" fill="white"/>
</mask>
<g mask="url(#mask0_41818_3996)">
<rect width="16" height="12" fill="#E31F37"/>
<path fill-rule="evenodd" clip-rule="evenodd" d="M-0.761963 6.4H8.38089V-0.800003H-0.761963V6.4Z" fill="#083B9A"/>
<path d="M4.19006 5.19977L4.34827 5.7652L3.8092 5.60016L3.27112 5.7652L3.42834 5.19977L3.27112 4.63434L3.8092 4.80035L4.34827 4.63434L4.19006 5.19977ZM4.76233 3.99957C4.86729 3.99978 4.95264 4.08954 4.95276 4.19977C4.95276 4.3101 4.86736 4.39976 4.76233 4.39996C4.65713 4.39996 4.5719 4.31023 4.5719 4.19977C4.57202 4.08942 4.65721 3.99957 4.76233 3.99957ZM2.66663 3.19977L2.82483 3.7652L2.28577 3.60016L1.7467 3.7652L1.90491 3.19977L1.7467 2.63434L2.28577 2.80035L2.82483 2.63434L2.66663 3.19977ZM6.09534 2.80035L6.25354 3.36578L5.71448 3.19977L5.17542 3.36578L5.33362 2.80035L5.17542 2.23395L5.71448 2.39996L6.25354 2.23395L6.09534 2.80035ZM4.19006 1.19977L4.34827 1.7652L3.8092 1.60016L3.27112 1.7652L3.42834 1.19977L3.27112 0.634338L3.8092 0.800354L4.34827 0.634338L4.19006 1.19977Z" fill="white"/>
</g>
</g>
<defs>
<clipPath id="clip0_41818_3996">
<rect width="16" height="12" fill="white"/>
</clipPath>
</defs>
</svg>

<svg xmlns="http://www.w3.org/2000/svg" width="16" height="12" fill="none" viewBox="0 0 16 12"><g clip-path="url(#a)"><rect width="16" height="12" fill="#fff" rx="2"/><mask id="b" width="16" height="12" x="0" y="0" maskUnits="userSpaceOnUse" style="mask-type:luminance"><rect width="16" height="12" fill="#fff" rx="2"/></mask><g mask="url(#b)"><path fill="#e31f37" d="M0 0h16v12H0z"/><path fill="#083b9a" fill-rule="evenodd" d="M-.762 6.4h9.143V-.8H-.762z" clip-rule="evenodd"/><path fill="#fff" d="m4.19 5.1998.1583.5654-.5391-.165-.538.165.1571-.5654-.1572-.5655.5381.166.539-.166zm.5723-1.2002c.105.0002.1903.09.1905.2002 0 .1103-.0854.2-.1905.2002-.1052 0-.1904-.0898-.1904-.2002.0001-.1104.0853-.2002.1904-.2002m-2.0957-.7998.1582.5654-.539-.165-.5391.165.1582-.5654-.1582-.5655.539.166.5391-.166zm3.4287-.3995.1582.5655-.539-.166-.539.166.1581-.5655-.1582-.5663.539.166.5391-.166zM4.1901 1.1998l.1582.5654-.5391-.165-.538.165.1571-.5654-.1572-.5655.5381.166.539-.166z"/></g></g><defs><clipPath id="a"><path fill="#fff" d="M0 0h16v12H0z"/></clipPath></defs></svg>
